X:1
T:Title
%%score 1 ( 2 3 )
L:1/8
Q:1/4=95
M:4/4
K:Ab
V:1 treble nm="Grand Piano, Soprano"
V:2 bass nm="Choir Pad, Prepare to Meeet Thy God"
V:3 bass 
V:1
 [CE]2 [_C=D]>[=CE] [_DF]2 [CE][CA] | [Ec]2 [EB][EA] [DA] [DG]3 | [CA] [CA]3 [CA] [DF]2 [DG]- | %3
w: By~George~Coles~Stebbins * * * * *|||
 [DG] [CA]3- [CA]2- [CA]/ z/ z | z [CE]2 [_C=D]- [CD]/[=CE]/ [_DF]2 [CE] | %5
w: ||
 [CA] [Ec]2 [EB] [EA][DA] [DG]2- | [DG][CA] [CA]2- [CA][CA] [DF]2 | [DG]2 [CA]6 | %8
w: |||
 z2 [DB]2 [C=A][DB] [Ec]2 | [DB]2 [CA]2- [CA][DF] [CE]2- | [CE]2 [Ec]2 [DB][Ec] [Fd]2 | %11
w: |||
 [Ec]2 [=DB]2- [DB]F [EB]2- | [EB]2 [DB]2 [C=A][DB] [Ec]2 | [EB]2 [Ee]2- [Ee][Ec] [FA]2 | %14
w: |||
 [CA] [CA]3 [CA] [DF]2 [DG]- | [DG] [CA]3- [CA]3- [CA]/ z/ |] %16
w: ||
V:2
 [A,,A,]2 [A,,A,]>[A,,A,] [A,,A,]2 [A,,A,][A,,A,] | [A,,A,]2 [B,,G,][C,A,] [E,B,] [E,B,]3 | %2
w: 1.~~ * * * * *||
 [F,A,] [F,A,]3 [F,A,]A,B,[E,G,B,]- | [E,G,B,] [A,,A,]3- [A,,A,]2- [A,,A,]/ z/ z | %4
w: ||
 z [A,,A,]2 [A,,A,]- [A,,A,]/[A,,A,]/ [A,,A,]2 [A,,A,] | %5
w: |
 [A,,A,] [A,,A,]2 [B,,G,] [C,A,][E,B,] [E,B,]2- | [E,B,][F,A,] [F,A,]2- [F,A,][F,A,]A,B, | %7
w: ||
 [E,G,B,]2 [A,,A,]6 | z2 [E,G,]2 [E,G,][E,G,] [E,G,]2 | %9
w: ||
 [E,G,]2 [A,,A,]2- [A,,A,][A,,A,] [A,,A,]2- | [A,,A,]2 A,2 A,A, [F,=A,]2 | %11
w: ||
 [F,=A,]2 [B,,B,]2- [B,,B,][=D,_A,] [E,G,]2- | [E,G,]2 [E,G,]2 [E,G,][E,G,] [E,G,]2 | %13
w: ||
 [D,G,]2 [C,A,]2- [C,A,][C,A,] [F,A,]2 | [F,A,] [F,A,]3 [F,A,]A,B,[E,G,B,]- | %15
w: ||
 [E,G,B,] [A,,A,]3- [A,,A,]3- [A,,A,]/ z/ |] %16
w: |
V:3
 x8 | x8 | z4 z .[D,F,]3 | x8 | x8 | x8 | z4 z2 [D,F,]2 | x8 | x8 | x8 | x8 | x8 | x8 | x8 | %14
 z4 z .[D,F,]3 | x8 |] %16

